X:1
T:Gånglåt bortåt vägen
R:Gånglåt
O:Småland
M:2/4
L:1/8
K:G
Z:Bo Bernvill
D |: GG BB | d3/2g/2 dc | BG Bd | c/2B/2A/2G/2 FD | GG BB | d3/2g/2 dc |BG B/2A/2G/2F/2 |1 G2 z D :|2 G2 z2 |: B3/2B/2 BA | Be BA | G3/2A/2 GF | E3/2D/2 E/2F/2G/2A/2 | B3/2B/2 BA | Be dB | A3/2A/2 A/2B/2A/2G/2 | A3/2D/2 G/2A/2B/2c/2 | d3/2d/2 dB | dg dc | B3/2G/2 GA | D2 ge | d3/2B/2 GA | B/2c/2d/2B/2 A/2F/2D/2F/2 | G3/2G/2 GG | G2 z2 :|

